assets/img/braze_icons/hourglass-01.svg

<svg fill="none" height="24" viewBox="0 0 24 24" width="24" xmlns="http://www.w3.org/2000/svg"><path clip-rule="evenodd" d="m3 2c0-.55228.44772-1 1-1h16c.5523 0 1 .44772 1 1s-.4477 1-1 1h-.9999v1.8671c.0004.71434.0007 1.25383-.1374 1.76698-.1217.45235-.3219.8798-.5915 1.26288-.3058.43457-.7204.77973-1.2695 1.23675l-3.4396 2.86629 3.4397 2.8663c.549.457.9636.8022 1.2694 1.2367.2696.3831.4698.8106.5915 1.2629.1381.5132.1378 1.0527.1374 1.767v1.8671h.9999c.5523 0 1 .4477 1 1s-.4477 1-1 1h-16c-.55228 0-1-.4477-1-1s.44772-1 1-1h1.00008l-.00004-1.8671c-.00038-.7143-.00067-1.2538.13739-1.767.1217-.4523.32191-.8798.5915-1.2629.30584-.4345.72047-.7797 1.26949-1.2367l3.43958-2.8663-3.43959-2.86629c-.54901-.45702-.96365-.80218-1.26948-1.23675-.26959-.38308-.4698-.81053-.5915-1.26288-.13806-.51315-.13777-1.05264-.13739-1.76699l.00004-1.86709h-1.00008c-.55228 0-1-.44772-1-1zm4.00008 2.7518v-1.7518h10.00002v1.7518c0 .88051-.0081 1.13729-.0687 1.36268-.0608.22617-.161.4399-.2957.63144-.1344.19087-.3265.36143-1.0029.92512l-3.6327 3.02726-3.63272-3.02726c-.67643-.56369-.86855-.73425-1.00288-.92512-.13479-.19154-.23489-.40527-.29574-.63144-.06064-.22539-.06868-.48217-.06868-1.36268z" fill="#801ed7" fill-rule="evenodd"/></svg>

<svg width="24" height="24" viewBox="0 0 24 24" fill="none" xmlns="http://www.w3.org/2000/svg">
<path fill-rule="evenodd" clip-rule="evenodd" d="M3 2C3 1.44772 3.44772 1 4 1H20C20.5523 1 21 1.44772 21 2C21 2.55228 20.5523 3 20 3H19.0001L19.0001 4.8671C19.0005 5.58144 19.0008 6.12093 18.8627 6.63408C18.741 7.08643 18.5408 7.51388 18.2712 7.89696C17.9654 8.33153 17.5508 8.67669 17.0017 9.13371L13.5621 12L17.0018 14.8663C17.5508 15.3233 17.9654 15.6685 18.2712 16.103C18.5408 16.4861 18.741 16.9136 18.8627 17.3659C19.0008 17.8791 19.0005 18.4186 19.0001 19.1329L19.0001 21H20C20.5523 21 21 21.4477 21 22C21 22.5523 20.5523 23 20 23H4C3.44772 23 3 22.5523 3 22C3 21.4477 3.44772 21 4 21H5.00008L5.00004 19.1329C4.99966 18.4186 4.99937 17.8791 5.13743 17.3659C5.25913 16.9136 5.45934 16.4861 5.72893 16.103C6.03477 15.6685 6.4494 15.3233 6.99842 14.8663L10.438 12L6.99841 9.13371C6.4494 8.67669 6.03476 8.33153 5.72893 7.89696C5.45934 7.51388 5.25913 7.08643 5.13743 6.63408C4.99937 6.12093 4.99966 5.58144 5.00004 4.86709L5.00008 3H4C3.44772 3 3 2.55228 3 2ZM7.00008 4.7518V3H17.0001V4.7518C17.0001 5.63231 16.992 5.88909 16.9314 6.11448C16.8706 6.34065 16.7704 6.55438 16.6357 6.74592C16.5013 6.93679 16.3092 7.10735 15.6328 7.67104L12.0001 10.6983L8.36738 7.67104C7.69095 7.10735 7.49883 6.93679 7.3645 6.74592C7.22971 6.55438 7.12961 6.34065 7.06876 6.11448C7.00812 5.88909 7.00008 5.63231 7.00008 4.7518Z" fill="#801ED7"/>
</svg>
